X: 231
T: The 25th Reel
T: dance: The 25th Reel [Lydia and Alan Smith]
C: Ed Pearlman \251 1995
B: Celebrate Fifty Years of Dancing with the Boston Branch RSCDS (2000) p.23
Z: 2009 John Chambers <jc:trillian.mit.edu>
M: C|
L: 1/8
P: ABAB
K: D
"A"[| A2 |\
"D"Adfd "A7"Aege | "D"fagf "G"edBc | "D"dfed "G"dBGB | "D"dAFd "A7"e2A2 |
"D"Adfd "A7"Aege | "D"fagf "G"edBc | "D"dfed dAFG | "A7"AFGF E2 ||
"B"[| "D"D2 |\
"G"BGDB "D"dAFd | "A7"eAce "D"f2fa | "G"geag "D"fdag | "Bm"fdAd "A7"e2A2  |
"G"BGDB "D"dAFd | "A7"eAce "D"f2fa | "G"geag "D"fAaf | "A7"eAdc "D"d2 |]

%%sep 2 1 500
%%sep 1 1 500

